resources/svg/user-unfollow-line.svg

<svg fill="currentColor" viewBox="0 0 24 24" xmlns="http://www.w3.org/2000/svg"><path d="M14 14.252V16.3414C13.3744 16.1203 12.7013 16 12 16C8.68629 16 6 18.6863 6 22H4C4 17.5817 7.58172 14 12 14C12.6906 14 13.3608 14.0875 14 14.252ZM12 13C8.685 13 6 10.315 6 7C6 3.685 8.685 1 12 1C15.315 1 18 3.685 18 7C18 10.315 15.315 13 12 13ZM12 11C14.21 11 16 9.21 16 7C16 4.79 14.21 3 12 3C9.79 3 8 4.79 8 7C8 9.21 9.79 11 12 11ZM19 17.5858L21.1213 15.4645L22.5355 16.8787L20.4142 19L22.5355 21.1213L21.1213 22.5355L19 20.4142L16.8787 22.5355L15.4645 21.1213L17.5858 19L15.4645 16.8787L16.8787 15.4645L19 17.5858Z"/></svg>

<svg xmlns="http://www.w3.org/2000/svg" viewBox="0 0 24 24" fill="currentColor">
    <g>
        <path fill="none" d="M0 0h24v24H0z"/>
        <path d="M14 14.252v2.09A6 6 0 0 0 6 22l-2-.001a8 8 0 0 1 10-7.748zM12 13c-3.315 0-6-2.685-6-6s2.685-6 6-6 6 2.685 6 6-2.685 6-6 6zm0-2c2.21 0 4-1.79 4-4s-1.79-4-4-4-4 1.79-4 4 1.79 4 4 4zm7 6.586l2.121-2.122 1.415 1.415L20.414 19l2.122 2.121-1.415 1.415L19 20.414l-2.121 2.122-1.415-1.415L17.586 19l-2.122-2.121 1.415-1.415L19 17.586z"/>
    </g>
</svg>
